X: 152
T: the Friendly Visit          E.
C: Ignatius Sancho 1775
%R: march
B: "Minuets Cotillons & Country Dances", 1775 p.15 #2
S: https://www.bl.uk/collection-items/minuets-cotillons-and-country-dances-by-ignatius-sancho#
Z: 2020 John Chambers <jc:trillian.mit.edu>
M: 2/4
L: 1/8
K: Eb
% - - - - - - - - - - - - - - - - - - - - - - - - - - - - -
V: 1 brace=2 % staves=2
V: 2 clef=bass middle=d
% - - - - - - - - - - - - - - - - - - - - - - - - - - - - -
[V:1] |: e>B TB2 | (3FGA (3GFE | B,>GB,>G | (3FGA (3GFE | e>B TB2 | (3gfe (3dcB | (3bfe (3dcB | (3FB=A B2 :|
[V:2] |: e2e2 | d2e2 | g2e2 | B2e2 | e2g2 | e2B2 | d2B2 | f2 B2 :|
[V:1] |: e>BB>c | (3_dcB c>A | f>cc>=d | (3edc d>B | b>g (3bgb | a>f (3afa | (3gfe (3Bed | e2 E2 :|
[V:2] |: e2e2 | g2a2 | f2f2 | =a2b2 | g2e2 | f2d2 | e2b2 | e4 :|
% - - - - - - - - - - - - - - - - - - - - - - - - - - - - -
%%begintext align
%% The first Cu. Hey Contrary sides .| Then on the other sides :| Lead down one
%% Cu. up again and cast off .|. Right and Left at top :|:
%%endtext
